svg/color/weth.svg

<svg width="32" height="32" viewBox="0 0 32 32" fill="none" xmlns="http://www.w3.org/2000/svg">
<path d="M8.97092 31.7377C17.0142 31.7377 17.0142 31.618 18.378 31.2131C20.1602 30.6841 13.346 25.9672 8.97092 25.9672C4.59586 25.9672 1.04918 27.259 1.04918 28.8525C1.04918 30.4459 4.59604 31.7377 8.97092 31.7377Z" fill="black"/>
<path d="M27.2348 7.20228L27.6047 7.60096L27.2813 8.03824C16.7914 22.2214 10.7486 28.6431 8.18463 27.7818C6.62294 27.2572 5.05679 25.6795 3.4906 23.3885C2.94009 22.5832 2.42315 21.7352 1.95298 20.8914C1.6399 20.3295 1.3749 19.8169 1.23731 19.5283C1.06179 19.1601 0.987687 18.9332 0.928897 18.6353C0.92531 18.6171 0.92531 18.6171 0.921901 18.5995C0.897363 18.473 0.888874 18.4331 0.870532 18.3639C0.554886 17.1743 0.393444 15.9418 0.393444 14.6885C0.393444 6.79357 6.79357 0.393444 14.6885 0.393444C17.1619 0.393444 19.5454 1.02293 21.6578 2.20458L21.7123 2.23871C23.4418 3.44279 25.2814 5.09729 27.2348 7.20228ZM20.9895 3.33353C19.0785 2.2707 16.9253 1.70492 14.6885 1.70492C7.51788 1.70492 1.70492 7.51788 1.70492 14.6885C1.70492 15.828 1.85155 16.9475 2.13815 18.0276C2.16649 18.1344 2.1793 18.1948 2.20937 18.3497C2.21252 18.366 2.21252 18.366 2.21556 18.3814C2.2535 18.5737 2.29353 18.6962 2.42117 18.964C2.54669 19.2273 2.79893 19.7152 3.09863 20.2531C3.55052 21.0641 4.0471 21.8787 4.57327 22.6483C5.98829 24.7182 7.39164 26.132 8.60226 26.5386C10.2169 27.081 16.2954 20.6465 25.9015 7.69767C24.1575 5.85683 22.5192 4.4021 20.9895 3.33353Z" fill="black"/>
<path d="M20.9895 3.33353C19.0785 2.2707 16.9253 1.70492 14.6885 1.70492C7.51788 1.70492 1.70492 7.51788 1.70492 14.6885C1.70492 15.828 1.85155 16.9475 2.13815 18.0276C2.16649 18.1344 2.1793 18.1948 2.20937 18.3497C2.21252 18.366 2.21252 18.366 2.21556 18.3814C2.2535 18.5737 2.29353 18.6962 2.42117 18.964C2.54669 19.2273 2.79893 19.7152 3.09863 20.2531C3.55052 21.0641 4.0471 21.8787 4.57327 22.6483C5.98829 24.7182 7.39164 26.132 8.60226 26.5386C10.2169 27.081 16.2954 20.6465 25.9015 7.69767C24.1575 5.85683 22.5192 4.4021 20.9895 3.33353Z" fill="#EC1C79"/>
<path d="M17.3115 31.6066C9.41652 31.6066 3.01639 25.2064 3.01639 17.3115C3.01639 9.41652 9.41652 3.01639 17.3115 3.01639C25.2064 3.01639 31.6066 9.41652 31.6066 17.3115C31.6066 25.2064 25.2064 31.6066 17.3115 31.6066ZM17.3115 30.2951C24.4821 30.2951 30.2951 24.4821 30.2951 17.3115C30.2951 10.1408 24.4821 4.32787 17.3115 4.32787C10.1408 4.32787 4.32787 10.1408 4.32787 17.3115C4.32787 24.4821 10.1408 30.2951 17.3115 30.2951Z" fill="black"/>
<path d="M17.3115 30.2951C24.4821 30.2951 30.2951 24.4821 30.2951 17.3115C30.2951 10.1408 24.4821 4.32787 17.3115 4.32787C10.1408 4.32787 4.32787 10.1408 4.32787 17.3115C4.32787 24.4821 10.1408 30.2951 17.3115 30.2951Z" fill="white"/>
<path fill-rule="evenodd" clip-rule="evenodd" d="M7.59921 19.9711L5.88066 14.7934H7.38623L8.28223 17.7679L9.27371 14.7788H10.5002L11.4917 17.7679L12.3877 14.7934H13.8639L12.1453 19.9711H10.9041L9.86859 17.0114L8.84039 19.9711H7.59921ZM14.4294 19.9344V14.7934H18.5642V16.0052H15.8395V16.7837H18.3071V17.9074H15.8395V18.7226H18.6009V19.9344H14.4294ZM20.5839 19.9344V16.042H19.0416V14.7934H23.551V16.042H22.0087V19.9344H20.5839ZM24.1752 19.9344V14.7934H25.6V16.7176H27.4287V14.7934H28.8535V19.9344H27.4287V17.9809H25.6V19.9344H24.1752Z" fill="black"/>
<path d="M1.24533 13.2471C0.882536 13.0657 0.735486 12.6245 0.916881 12.2617C1.09828 11.8989 1.53943 11.7519 1.90222 11.9333L4.00058 12.9825C4.36337 13.1638 4.51042 13.605 4.32902 13.9678C4.14763 14.3306 3.70648 14.4776 3.34369 14.2962L1.24533 13.2471Z" fill="black"/>
<path d="M1.00372 16.7264C0.635441 16.5564 0.474674 16.1201 0.644641 15.7518C0.814608 15.3835 1.25095 15.2227 1.61923 15.3927L3.71759 16.3611C4.08587 16.5311 4.24664 16.9674 4.07667 17.3357C3.90671 17.704 3.47037 17.8647 3.10208 17.6948L1.00372 16.7264Z" fill="black"/>
</svg>

<svg xmlns="http://www.w3.org/2000/svg" width="32" height="32" fill="none" viewBox="0 0 32 32"><path fill="#000" d="M8.97 31.738c8.044 0 8.044-.12 9.408-.525 1.782-.529-5.032-5.246-9.407-5.246s-7.922 1.292-7.922 2.886c0 1.593 3.547 2.885 7.922 2.885"/><path fill="#000" d="m27.235 7.202.37.399-.324.437C16.791 22.221 10.75 28.643 8.185 27.782c-1.562-.525-3.128-2.102-4.694-4.393a32 32 0 0 1-1.538-2.498 27 27 0 0 1-.716-1.363 3.4 3.4 0 0 1-.308-.893L.922 18.6a3 3 0 0 0-.051-.235 14.3 14.3 0 0 1-.478-3.676C.393 6.794 6.793.393 14.688.393c2.474 0 4.857.63 6.97 1.812l.054.034q2.594 1.806 5.523 4.963M20.99 3.334a12.9 12.9 0 0 0-6.301-1.63c-7.171 0-12.984 5.814-12.984 12.985 0 1.139.147 2.259.433 3.339a4 4 0 0 1 .078.353c.037.193.078.315.205.583a31 31 0 0 0 2.152 3.684c1.415 2.07 2.819 3.484 4.03 3.89 1.614.543 7.692-5.892 17.298-18.84q-2.617-2.762-4.911-4.364"/><path fill="#EC1C79" d="M20.99 3.334a12.9 12.9 0 0 0-6.301-1.63c-7.171 0-12.984 5.814-12.984 12.985 0 1.139.147 2.259.433 3.339a4 4 0 0 1 .078.353c.037.193.078.315.205.583a31 31 0 0 0 2.152 3.684c1.415 2.07 2.819 3.484 4.03 3.89 1.614.543 7.692-5.892 17.298-18.84q-2.617-2.762-4.911-4.364"/><path fill="#000" d="M17.312 31.607c-7.895 0-14.296-6.4-14.296-14.295s6.4-14.296 14.295-14.296 14.296 6.4 14.296 14.295-6.4 14.296-14.295 14.296m0-1.312c7.17 0 12.983-5.813 12.983-12.984 0-7.17-5.813-12.983-12.984-12.983-7.17 0-12.983 5.813-12.983 12.984 0 7.17 5.813 12.983 12.984 12.983"/><path fill="#fff" d="M17.312 30.295c7.17 0 12.983-5.813 12.983-12.984 0-7.17-5.813-12.983-12.984-12.983-7.17 0-12.983 5.813-12.983 12.984 0 7.17 5.813 12.983 12.984 12.983"/><path fill="#000" fill-rule="evenodd" d="m7.6 19.971-1.72-5.178h1.506l.896 2.975.992-2.99H10.5l.992 2.99.896-2.975h1.476l-1.719 5.178h-1.24l-1.036-2.96-1.029 2.96zm6.83-.037v-5.14h4.134v1.211H15.84v.779h2.468v1.123H15.84v.816h2.76v1.211zm6.154 0v-3.892h-1.542v-1.249h4.509v1.249h-1.542v3.892zm3.591 0v-5.14H25.6v1.924h1.829v-1.925h1.425v5.141h-1.425v-1.953H25.6v1.953z" clip-rule="evenodd"/><path fill="#000" d="M1.245 13.247a.734.734 0 0 1 .657-1.314l2.099 1.05a.734.734 0 1 1-.657 1.313zm-.241 3.479a.734.734 0 0 1 .615-1.333l2.099.968a.734.734 0 0 1-.616 1.334z"/></svg>
